app/public/icons/navHome.svg

<svg width="25" height="25" viewBox="0 0 25 25" fill="none" xmlns="http://www.w3.org/2000/svg">
<g clip-path="url(#clip0_424_1129)">
<path d="M24.9913 12.4756C24.9913 13.3545 24.3403 14.043 23.6024 14.043H22.2135L22.2439 21.8652C22.2439 21.9971 22.2352 22.1289 22.2222 22.2607V23.0469C22.2222 24.126 21.4453 25 20.4861 25H19.7917C19.7439 25 19.6962 25 19.6484 24.9951C19.5877 25 19.5269 25 19.4661 25H18.0556H17.0139C16.0547 25 15.2778 24.126 15.2778 23.0469V21.875V18.75C15.2778 17.8857 14.6571 17.1875 13.8889 17.1875H11.1111C10.3429 17.1875 9.72222 17.8857 9.72222 18.75V21.875V23.0469C9.72222 24.126 8.94531 25 7.98611 25H6.94444H5.5599C5.49479 25 5.42969 24.9951 5.36458 24.9902C5.3125 24.9951 5.26042 25 5.20833 25H4.51389C3.55469 25 2.77778 24.126 2.77778 23.0469V17.5781C2.77778 17.5342 2.77778 17.4854 2.78212 17.4414V14.043H1.38889C0.607639 14.043 0 13.3594 0 12.4756C0 12.0361 0.130208 11.6455 0.434028 11.3037L11.5625 0.390625C11.8663 0.0488281 12.2135 0 12.5174 0C12.8212 0 13.1684 0.0976562 13.4288 0.341797L24.5139 11.3037C24.8611 11.6455 25.0347 12.0361 24.9913 12.4756Z" fill="#1351B4"/>
</g>
<defs>
<clipPath id="clip0_424_1129">
<rect width="25" height="25" fill="white"/>
</clipPath>
</defs>
</svg>

<svg xmlns="http://www.w3.org/2000/svg" width="25" height="25" fill="none"><g clip-path="url(#a)"><path fill="#1351B4" d="M24.991 12.476c0 .878-.65 1.567-1.389 1.567h-1.389l.03 7.822q-.001.198-.02.396v.786c0 1.079-.778 1.953-1.737 1.953h-.694q-.072.001-.144-.005-.09.006-.182.005h-2.452c-.96 0-1.736-.874-1.736-1.953V18.75c0-.864-.62-1.562-1.39-1.562h-2.777c-.768 0-1.389.698-1.389 1.562v4.297c0 1.079-.777 1.953-1.736 1.953H5.56q-.098-.001-.195-.01-.08.009-.157.01h-.694c-.96 0-1.736-.874-1.736-1.953v-5.469c0-.044 0-.093.004-.137v-3.398H1.39c-.782 0-1.39-.684-1.39-1.567 0-.44.13-.83.434-1.172L11.563.39c.303-.342.65-.391.954-.391s.651.098.912.342l11.085 10.962c.347.341.52.732.477 1.172"/></g><defs><clipPath id="a"><path fill="#fff" d="M0 0h25v25H0z"/></clipPath></defs></svg>
